!!!OTL: VROU NACHTIGALL KLEINS VUEGELIN
!!!ARE: Europa, Mitteleuropa, Deutschland, Niederrhein, Niederkruechten
!!!SCT: E0413C
!!!YEM: Copyright 1995, estate of Helmut Schaffrath.
**kern
*ICvox
*Ivox
*M4/4
*k[f#c#]
*D:
{4A
=1
4d
4e
4f#
4g
=2
4f#
4e
4d}
{4A
=3
4d
4e
4f#
4g
=4
4f#
4e
4d}
{4f#
=5
2d
4c#
4B
=6
2B
4A}
{4A
=7
4d
4d
4e
4e
=8
4a
4e
4f#}
{4f#
=9
4e
4c#
4B}
==
!!!AGN: Liebes - Lied
!! modulierend, plagaler Schluss ?
!!!ONB: ESAC (Essen Associative Code) Database: ERK1
!!!AMT: simple quadruple
!!!AIN: vox
!!!EED: Helmut Schaffrath
!!!EEV: 1.0
*-
